X:1
T:Oravit Sanctus Andreas
T:Andrea Gabrieli
T:Source : Liber primus Ecclesiasticarum Cantionum---Venetia---Ang.Gardano---1576. Editor : André Vierendeels (13/09/17). 
T:Oravit Sanctus Andreas
T:©
T:©
T:©
T:©
T:©
C:Andrea Gabrieli
Z:©
%%score [ 1 2 3 4 ]
L:1/8
Q:1/4=120
M:2/2
K:F
V:1 treble nm="Soprano" snm="S"
V:2 treble-8 nm="Tenor 1" snm="T 1"
V:3 treble-8 nm="Tenor 2" snm="T 2"
V:4 bass nm="Bass" snm="B"
V:1
 D4 G4- | G2 G2 B4 | A2 F2 A4 | G2 B3 A G2- | G2 G2 F2 A2- | A2 GF GABG | A2 G4 F2 | G4 z2 B2- | %8
w: O- ra-|* vit San-|ctus An- dre-|as, San- * *|* ctus An- dre-|||as dum|
 B2 B2 A3 A | A2 B2 c4 | d4 z4 | z4 z2 G2 | A2 B2 G4 | A2 A2 FE/F/ G2 | A2 A4 d2- | %15
w: _ res- pi- ce-|ret in ce-|lum|et|vo- ce ma-|gna cla- ma- * * *|vit, cla- ma-|
 dc/B/ c2 d2 D2 | E2 F2 D4 | E4 D2 G2- | GF/E/ F2 G4 | z2 G2 F4 | D4 z4 | z2 G2 B4 | A2 A4 A2 | %23
w: * * * * vit, et|vo- ce ma-|gna cla- ma-|* * * * vit|et di-|xit,|et di-|xit tu es|
 G2 D2 G4 | A2 F4 F2 | D3 E F2 E2 | G2 G2 F2 B2- | B2 A2 B4 | z2 d4 c2 | c2 d2 B4 | A4 A4 | d6 c2 | %32
w: De- us me-|us, tu es|De- * * us|me- us quem vi-|* * di|ne me|pa- ti- a-|ris ab|im- pi-|
 c2 A4 F2 | G2 A4 G2- | G2 F2 G4 | z8 | z8 | z4 z2 A2 | B2 G2 B4 | A8 | z4 z2 G2 | A2 F2 G4- | %42
w: o iu- di-|ce de- po-|* * ni|||qui-|a vir- tu-|tem,|qui-|a vir- tu-|
 G4 ^F2 G2- | G2 A2 B4- | B2 B2 A2 G2- |"^#""^#" G2 FE F4 | G4 z2 G2 | B2 G2 B4 | A8 | z4 z2 G2 | %50
w: * tem San-|* cte cru-|* cis a- gno-||vi, qui-|a vir- tu-|tem,|qui-|
 A2 F2 G4- | G4 ^F2 G2- | G2 A2 B4- | B2 B2 A2 G2- |"^#""^#" GF/E/ F2 G2 G2- | G2 A2 B4- | %56
w: a vir- tu-|* tem San-|* cte cru-|* cis a- gno-|* * * * vi, San-|* cte cru-|
 B2 B2 A2 G2- |"^#" G2 FE F4 | G8 |] %59
w: * cis a- gno-||vi.|
V:2
 z8 | z4 G4 | d6 d2 | _e4 d2 B2 | d4 d2 f2- | fedc BA G2 | F2 B2 A4 | c4 B2 d2- | d2 G2 A3 A | %9
w: |O-|ra- vit|San- ctus An-|dre- as, San-||ctus An dre-|* as dum|_ res- pi- ce-|
 d2 d2 f4 | f2 d2 ^c2 d2 |"^-natural" dc B2 A2 d2 | A2 d2 z2 d2 | e2 f2 d4 | e2 e2 f2 g2 | e4 f4 | %16
w: ret in ce-|lum et vo- ce|Ma- * * gna cla-|ma- vit et|vo- ce Ma-|gna, et vo- ce|Ma- gna,|
 z4 z2 B2 | A2 G2 B4 | A4 G2 d2- | dc/B/ c2 d2 d2 | f4 d2 d2 | _e4 d2 d2- | d2 d2 c2 A2 | B8 | %24
w: et|vo- ce Ma-|gna cla- ma-|* * * * vit et|di- xit et|di- xit tu|_ es De- us|me-|
 A2 A4 c2 | B2 G2 ABcA | d4 d2 f2 | f6 _ed |"^-natural" d3 e f4 | f4 z4 | z8 | z2 f4 e2 | %32
w: us, tu es|De- us me- * * *|* us quem|vi- * *||di||ne me-|
 e2 f2 d4 | c4 z4 | z2 d2 _e4- | e2 d2 c2 f2- | f2 d2 d3 c | B2 B2 A4 | G4 z2 d2 | f2 d2 f4 | %40
w: pa- ti- a-|ris|ab im-|* pi- o iu-|* di- ce _|_ de- po-|ni, qui-|a vir- tu-|
 d2 g2 f2 d2 | f4 _e3 d | cB c2 d2 d2- | d2 f2 g4 | f4 _e4 | d8 | d8- | d4 z2 d2 | f2 d2 f4 | %49
w: tem, qui- a vir-|tu- * *|* * * tem San-|* cte cru-|cis a-|gno-|vi,|_ qui-|a vir- tu-|
 d2 g2 f2 d2 | f4 _e3 d | cB c2 d2 d2- |"^-natural" d2 f2 g4 | f2 f2 _e4 | d4 z2 d2- | %55
w: tem, qui- a vir-|tu- * *|* * * tem San-|* cte cru-|cis a- gno-|vi, San-|
"^-natural" d2 f2 g4 | f4 _e4 | d8 | d8 |] %59
w: * cte cru-|cis a-|gno-|vi.|
V:3
 z8 | z8 | z4 D4 | G6 G2 | B4 A2 F2 | A4 G2 G2 | d6 d2 | _e4 d2 B2 | d4 c4 | z8 | z2 G2 A2 B2 | %11
w: ||O-|ra- vit|San- ctus An-|dre- as, o-|ra- vit|San- cte An-|dre- as||et vo- ce|
 G4 A2 B2 | d4 d4 | z2 D4 d2- |"^-natural" dc/B/ c2 d4 | z8 | z2 A2 G2 F2 | c4 G2 G2 | %18
w: Ma- gna cla-|ma- vit,|cla- ma-|* * * * vit,||et vo- ce|Ma- gna cla-|
 d3 c BA B2- | B2 AG B2 A2 | z2 A2 B4 | G2 G4 G2 | F2 D2 F4 | G4 z2 d2- | d2 d2 c2 A2 | B4 c2 c2 | %26
w: ma- * * * *|* * * * vit|et di-|xit tu es|De- us me-|us, tu|_ es De- us|me- us quem|
 B4 A2 d2 | c4 B4- | B4 z4 | z4 z2 d2- | d2 c2 c2 d2 | B4 A4- | A4 z4 | z2 F2 B4- | B2 A2 G2 B2- | %35
w: vi- di, quem|vi- di|_|ne|_ me pa- ti-|a- ris|_|ab im-|* pi- o iu-|
 B2 A2 A3 G/A/ | B2 A2 G2 ^F2 | G4 D4 | z2 B2 d2 B2 | d3 c/B/ AB c2 | GABc d2 G2 | c2 B3 G c2 | %42
w: * di- ce _ _|_ de- po- *|* ni,|qu- a vir-|tu- * * * * *|* * * * tem, qui-|a vir- * *|
 G4 A2 B2- | B2 c2 _e4 | d2 d2 c3 B | A8 | G8 | z2 B2 d2 B2 | d3 c/B/ AB c2 | GABc d2 G2 | %50
w: tu- tem San-|* cte cru-|cis a- gno- *||vi,|qui- a vir-|tu- * * * * *|* * * * tem, qui-|
 c2 B3 G c2 | G4 A2 B2- | B2 c2 _e4 | d2 d2 c3 B | A4 G2 B2- | B2 c2 _e4 | d2 d2 c3 B | A8 | G8 |] %59
w: a vir- * *|tu- tem San-|* cte cru-|cis a- gno- *|* vi, San-|* cte cru-|cis a- gno- *||vi.|
V:4
 z8 | z8 | z8 | z8 | G,,4 D,4- | D,2 D,2 _E,4 | D,2 B,,2 D,4 | C,4 z2 G,2- | G,2 B,2 F,3 F, | %9
w: ||||O- ra-|* vit San-|ctus An- dre-|as dum|_ res- pi- ce-|
 F,2 G,2 A,4 | B,4 z4 | z4 z2 G,2 | ^F,2 G,2 G,A, B,2 | A,2 F,2 B,4 | A,4 z2 G,2 | A,4 D,2 B,,2 | %16
w: ret in ce-|lum|et|vo- ce Ma- * *|gna cla- ma-|vit, cla-|ma- vit, et|
 C,2 D,2 B,,4 | C,4 z4 | D,4 G,3 F, | _E,4 D,4- | D,4 z2 G,,2 | C,4 G,,4 | z8 | z2 G,4 G,2 | %24
w: vo- ce Ma-|gna|cla- ma- *|* vit|_ et|di- xit||tu es|
 F,2 D,2 F,4 | G,2 B,2 A,4 |"^b" G,2 G,2 D,3 E, | F,4 B,,4 | z2 B,4 A,2 | A,2 B,2 G,4 | F,8 | z8 | %32
w: De- us me-|us quem vi-|di, quem vi- *|* di|ne me|pa- ti- a-|ris||
 z8 | z8 | D,4 G,4- | G,2 F,2 F,2 D,2- | D,2 F,2 G,2 A,2- | A,2 G,4 F,2 | G,8 | z4 z2 A,2 | %40
w: ||ab im-|* pi- o iu-|* di- ce de-|* po- *|ni,|qu-|
 B,2 G,2 B,4 | A,2 D,2 _E,2 C,2 | _E,4 D,2 G,2- | G,2 F,2 _E,4 | B,,4 C,4 | D,4 D,4 | %46
w: a vir- tu-|tem, qui- a vir-|tu- tem San-|* cte cru-|cis a-|gno- vi,|
 z2 G,2 B,2 G,2 | G,8 | D,4 z2 A,2 | B,2 G,2 B,4 | A,2 D,2 _E,2 C,2 | _E,4 D,2 G,2- | %52
w: qui- a vir-|tu-|tem, qui-|a vir- tu-|tem, qui- a vir-|tu- tem San-|
"^#""^-natural" G,2 F,2 _E,4 | B,,4 C,4 | D,4 G,,2 G,2- |"^-natural" G,2 F,2 _E,4 | B,,4 C,4 | %57
w: * cte cru-|cis a-|gno- vi, San-|* cte cru-|cis a-|
 D,8 | G,,8 |] %59
w: gno-|vi.|

